X:1
T:Title
%%score { ( 1 3 ) | ( 2 4 ) }
L:1/8
M:6/4
K:Ab
V:1 treble nm="Grand Piano"
V:3 treble 
V:2 bass 
V:4 bass 
V:1
 z6 z4 [A,C][B,D] | [CE]2 [CF]2 [CG]2 [CA]2 [DB]2 [Ec]2 | [Fd]6 [Ec]6 | c2 B2 =A2 B2 F2 G2 | %4
 [CA]2 [EG]2 [DF]2 [CE]4 [A,C][B,D] | [CE]2 [CF]2 [CG]2 [CA]2 [DB]2 [Ec]2 | [Fd]6 [Ec]4 [Ec]2 | %7
 [EB]2 [Ge]2 [Ge]2 [EG]2 [=DG]2 F2 | E12 |[M:1/4] E2 |[M:6/4] [Ec]3 [Fc] [Gc]2 c2- [Gc-]2 [_Gc]2 | %11
 [Fd]2 [FA]2 [=EB]2 [_Ec]4 [Ec]2 | c3 B =A2 B2 F2 G2 | A6 z6 | z6 .B6 | [CE]4 [CA]2 [Ec]4 [Fd]2 | %16
 c2 E2 c2 B2 E2 B2 |[M:5/4] [CA]2- [CA]2- [CA]6 |] %18
V:2
 z6 z4 [A,,E,][A,,E,] | [A,,A,]2 [A,,A,]2 [A,,A,]2 [A,,E,]4 [A,,A,]2 | [A,,A,]6 [A,,A,]6 | %3
 [E,A,E]2 [E,G,D]2 [E,_G,C]2 [E,=G,D]2 [E,G,D]2 [E,D]2 | %4
 [A,,E,]4 [A,,A,]2 [A,,A,]4 [A,,E,][A,,E,] | [A,,A,]2 [A,,A,]2 [A,,A,]2 [A,,E,]4 [A,,A,]2 | %6
 [A,,A,]6 [A,,A,]4 [A,,A,]2 | [B,,G,]2 [B,,B,]2 [B,,B,]2 [B,,B,]2 [B,,B,]2 [B,,A,B,]2 | %8
 [G,B,]4 A,2 B,6 |[M:1/4] [E,G,]2 |[M:6/4] [A,,A,]3 [A,,A,] [A,,A,]2 [A,,A,]6 | %11
 [D,A,]2 [D,A,]2 [D,A,]2 [A,,A,]4 [A,,A,]2 | [E,A,E]3 [E,G,D] [E,_G,C]2 [E,=G,D]4 [E,D]2 | %13
 [A,,E,]2 [A,,E,]2 [A,,E,]2 .[A,,A,]6 | [A,,A,]3 [A,,A,] [A,,A,]2 [D,A,]4 [D,A,D]2 | %15
 [A,,A,]4 [A,,E,]2 [A,,A,]4 [D,A,]2 | [E,A,E]2 [E,A,C]2 [E,A,E]2 [E,G,D]2 [E,G,D]2 [E,D]2 | %17
[M:5/4] [A,,E,]2- [A,,E,]2- [A,,E,]6 |] %18
V:3
 x12 | x12 | x12 | x12 | x12 | x12 | x12 | x12 | z4 C2 D6 |[M:1/4] x2 |[M:6/4] z6 .A6 | x12 | x12 | %13
 C2 C2 C2 .[CE]6 | [Ec]3 [Ec] [Ec]2 F2- [FA]2 F2 | x12 | x12 |[M:5/4] x10 |] %18
V:4
 x12 | x12 | x12 | x12 | x12 | x12 | x12 | x12 | E,12 |[M:1/4] x2 |[M:6/4] x12 | x12 | x12 | x12 | %14
 x12 | x12 | x12 |[M:5/4] x10 |] %18

